X:497
T:Canal in October
M:4/4
L:1/8
Q:1/8=170
K:G
B2 B2 cBAG|B2 B2 cBAG|EFGB A3 G|FGEF  D2-D2|
B2 B2 cBAG|B2 B2 cBAG|EFGB A3 G|G2-G2-G2-G2:||
d2 d2 cBAG|d2 d2 cBAG|EFGB A3 G|FGEF  D2-D2|
d2 d2 cBAG|d2 d2 cBAG|EFGB A3 G|G2-G2-G2-G2:||
